suite-common/icons/assets/icons/cancel.svg

<svg xmlns="http://www.w3.org/2000/svg" viewBox="0 0 24 24">
  <path fill-rule="evenodd" d="M10.656 2.24a10.04 10.04 0 0 0-7.079 4.706c-.825 1.357-1.331 2.958-1.419 4.488-.113 1.967.241 3.63 1.139 5.35.932 1.788 2.225 3.058 4.059 3.989 1.108.563 2.103.869 3.364 1.034.497.065 1.883.066 2.34.001 3-.423 5.48-1.943 7.095-4.348 2.031-3.025 2.274-6.813.647-10.056-.543-1.081-1.214-1.981-2.049-2.748-1.409-1.293-3.529-2.242-5.481-2.454-.628-.068-2.051-.047-2.616.038M8.873 7.564c.128.055.553.452 1.65 1.542L12 10.574l1.47-1.461c.954-.949 1.531-1.493 1.644-1.55.24-.122.616-.124.862-.005.205.099.407.31.492.515.091.218.077.6-.029.809-.059.116-.596.686-1.552 1.648L13.426 12l1.461 1.47c.88.885 1.494 1.534 1.542 1.63.202.402.133.822-.188 1.143-.347.347-.871.402-1.237.13-.079-.059-.787-.746-1.574-1.528L12 13.424l-1.43 1.421c-.786.782-1.495 1.469-1.574 1.528-.366.272-.89.217-1.237-.13-.321-.321-.39-.741-.188-1.143.048-.096.662-.745 1.542-1.63L10.574 12l-1.461-1.47c-.879-.884-1.494-1.535-1.542-1.631a.988.988 0 0 1 .622-1.403c.218-.058.438-.036.68.068"/>
</svg>

<svg xmlns="http://www.w3.org/2000/svg" viewBox="0 0 24 24"><path d="M10.656 2.240 C 7.712 2.686,5.118 4.410,3.577 6.946 C 2.752 8.303,2.246 9.904,2.158 11.434 C 2.045 13.401,2.399 15.064,3.297 16.784 C 4.229 18.572,5.522 19.842,7.356 20.773 C 8.464 21.336,9.459 21.642,10.720 21.807 C 11.217 21.872,12.603 21.873,13.060 21.808 C 16.060 21.385,18.540 19.865,20.155 17.460 C 22.186 14.435,22.429 10.647,20.802 7.404 C 20.259 6.323,19.588 5.423,18.753 4.656 C 17.344 3.363,15.224 2.414,13.272 2.202 C 12.644 2.134,11.221 2.155,10.656 2.240 M8.873 7.564 C 9.001 7.619,9.426 8.016,10.523 9.106 L 12.000 10.574 13.470 9.113 C 14.424 8.164,15.001 7.620,15.114 7.563 C 15.354 7.441,15.730 7.439,15.976 7.558 C 16.181 7.657,16.383 7.868,16.468 8.073 C 16.559 8.291,16.545 8.673,16.439 8.882 C 16.380 8.998,15.843 9.568,14.887 10.530 L 13.426 12.000 14.887 13.470 C 15.767 14.355,16.381 15.004,16.429 15.100 C 16.631 15.502,16.562 15.922,16.241 16.243 C 15.894 16.590,15.370 16.645,15.004 16.373 C 14.925 16.314,14.217 15.627,13.430 14.845 L 12.000 13.424 10.570 14.845 C 9.784 15.627,9.075 16.314,8.996 16.373 C 8.630 16.645,8.106 16.590,7.759 16.243 C 7.438 15.922,7.369 15.502,7.571 15.100 C 7.619 15.004,8.233 14.355,9.113 13.470 L 10.574 12.000 9.113 10.530 C 8.234 9.646,7.619 8.995,7.571 8.899 C 7.288 8.335,7.588 7.657,8.193 7.496 C 8.411 7.438,8.631 7.460,8.873 7.564 " stroke="none" fill-rule="evenodd" fill="black"></path></svg>
